picto/urinal-framed.svg

<svg class="color-immutable" width="30" height="30" viewBox="0 0 30 30" fill="none" xmlns="http://www.w3.org/2000/svg"><path d="M29.9999 0H0V29.9999H29.9999V0Z" fill="#2D327D"/><path d="M4.49999 2.99999H25.4999C26.3249 2.99999 26.9999 3.67499 26.9999 4.49999V25.4999C26.9999 26.3249 26.3249 26.9999 25.4999 26.9999H4.49999C3.67499 26.9999 2.99999 26.3249 2.99999 25.4999V4.49999C2.99999 3.67499 3.67499 2.99999 4.49999 2.99999ZM4.49999 2.62499C3.46612 2.62499 2.62499 3.46612 2.62499 4.49999V25.4999C2.62499 26.5338 3.46612 27.3749 4.49999 27.3749H25.4999C26.5338 27.3749 27.3749 26.5338 27.3749 25.4999V4.49999C27.3749 3.46612 26.5338 2.62499 25.4999 2.62499H4.49999Z" fill="white"/><path d="M16.5 7.48814C16.5 6.66015 15.828 5.98815 14.9999 5.98815C14.172 5.98815 13.5 6.66015 13.5 7.48814C13.5 8.31614 14.172 8.98814 14.9999 8.98814C15.828 8.98814 16.5 8.31614 16.5 7.48814Z" fill="white"/><path d="M11.6814 10.8748V15.9654C11.6814 16.2604 11.9206 16.4997 12.2157 16.4997C12.5107 16.4997 12.75 16.2603 12.75 15.9654V11.6247H13.2186V23.2309C13.2186 23.6552 13.5631 23.9996 13.9876 23.9996C14.4119 23.9996 14.7563 23.6552 14.7563 23.2309V16.4809H15.2436V23.2309C15.2436 23.6552 15.588 23.9996 16.0125 23.9996C16.4368 23.9996 16.7812 23.6552 16.7812 23.2309V11.6247H17.25V15.9654C17.25 16.2604 17.4893 16.4997 17.7846 16.4997C18.0795 16.4997 18.3187 16.2603 18.3187 15.9654V10.8748C18.3187 10.0468 17.6469 9.37477 16.8188 9.37477H13.1813C12.3531 9.37477 11.6814 10.0468 11.6814 10.8748Z" fill="white"/><path d="M23.9999 5.99593C23.8975 5.99593 23.8144 6.07895 23.8144 6.1814V11.943C23.7837 11.9518 23.7568 11.9699 23.7374 11.9944V11.9942L22.8907 12.897L22.8911 12.897C22.8079 12.9758 22.7481 13.0409 22.7251 13.1578C22.7162 13.1994 22.7106 13.2854 22.7088 13.3396C22.624 15.8991 21.7083 16.7725 21.3466 16.923C21.2932 16.9452 21.0144 17.0771 21.0361 17.4375C21.1565 19.437 22.2446 21.08 23.4233 21.08H23.8143V23.8064C23.8143 23.9088 23.8972 23.9918 23.9998 23.9918C24.1022 23.9918 24.1852 23.9089 24.1852 23.8064V6.1814C24.1854 6.07895 24.1024 5.99593 23.9999 5.99593Z" fill="white"/></svg>

<svg class="color-immutable" width="30" height="30" viewBox="0 0 30 30" fill="none" xmlns="http://www.w3.org/2000/svg"><path d="M30 0H0v30h30V0Z" fill="#2D327D"/><path d="M4.5 3h21c.825 0 1.5.675 1.5 1.5v21c0 .825-.675 1.5-1.5 1.5h-21c-.825 0-1.5-.675-1.5-1.5v-21C3 3.675 3.675 3 4.5 3Zm0-.375A1.877 1.877 0 0 0 2.625 4.5v21c0 1.034.841 1.875 1.875 1.875h21a1.877 1.877 0 0 0 1.875-1.875v-21A1.877 1.877 0 0 0 25.5 2.625h-21Z" fill="#fff"/><path d="M16.5 7.488a1.5 1.5 0 1 0-3.001.001 1.5 1.5 0 0 0 3.001 0ZM11.681 10.875v5.09a.534.534 0 0 0 1.069 0v-4.34h.469V23.23a.77.77 0 0 0 1.537 0v-6.75h.488v6.75a.77.77 0 0 0 1.537 0V11.625h.469v4.34a.534.534 0 0 0 1.069 0v-5.09a1.5 1.5 0 0 0-1.5-1.5H13.18a1.5 1.5 0 0 0-1.5 1.5ZM24 5.996a.186.186 0 0 0-.186.185v5.762a.151.151 0 0 0-.077.051l-.846.903c-.083.079-.143.144-.166.26a1.353 1.353 0 0 0-.016.183c-.085 2.56-1 3.433-1.362 3.583a.508.508 0 0 0-.31.515c.12 1.999 1.208 3.642 2.386 3.642h.391v2.726a.185.185 0 1 0 .371 0V6.181A.185.185 0 0 0 24 5.996Z" fill="#fff"/></svg>
